X:1
T:Canon in D
T:Canon in D
T:Pachelbel arr. Mark Buccheri
C:Pachelbel arr. Mark Buccheri
%%score { 1 | 2 }
L:1/8
M:4/4
K:D
V:1 treble nm="Piano" snm="Pno."
V:2 bass 
V:1
 (f8 | e8 | d8 | c8 | B8 | A8 | B8 | c8) | ([df]8 | [ce]8 | [Bd]8 | [Ac]8 | [GB]8 | [FA]8 | [GB]8 | %15
 [Ac]8) | ([df]4 A4 | [ce]4 A4 | [Bd]4 F4 | [Ac]4 F4 | [GB]4 D4 | [FA]4 D4 | [GB]4 D4 | [Ac]4 E4) | %24
 (D4 F4 | A4 G4 | F4 D4 | F4 E4 | D4 B,4 | D4 A4 | G4 B4 | A4 G4) | (D2 E2 F2 G2 | A2 E2 A2 G2 | %34
 F2 B2 A2 G2 | A2 G2 F2 E2 | D2 B,2 B2 c2 | d2 c2 B2 A2 | G2 F2 E2 B2 | A2 B2 A4) | (a2 fg a2 fg | %41
 aABc defg | f2 de f2 FG | ABAG Adcd | B2 dc B2 AG | AGFG ABcd | B2 dc d2 cd | cABc defg) | %48
 ([df]4 A4 | [ce]4 A4 | [Bd]4 F4 | [Ac]4 F4 | [GB]4 D4 | [FA]4 D4 | [GB]4 d4 | [Ac]4 e4 | %56
 [FAd]8) |] %57
V:2
 D,8 | A,,8 | B,,8 | F,,8 | G,,8 | D,,8 | G,,8 | A,,8 | D,8 | A,,8 | B,,8 | F,,8 | G,,8 | D,,8 | %14
 G,,8 | A,,8 | D,8 | A,,8 | B,,8 | F,,8 | G,,8 | D,,8 | G,,8 | A,,8 | D,8 | A,,8 | B,,8 | F,,8 | %28
 G,,8 | D,,8 | G,,8 | A,,8 | D,8 | A,,8 | B,,8 | F,,8 | G,,8 | D,,8 | G,,8 | A,,8 | D,8 | A,,8 | %42
 B,,8 | F,,8 | G,,8 | D,,8 | G,,8 | A,,8 | D,8 | A,,8 | B,,8 | F,,8 | G,,8 | D,,8 | G,,8 | A,,8 | %56
 D,8 |] %57

